dist/svgs/crypto-icons/icons/dao.svg

<?xml version="1.0" encoding="UTF-8" standalone="yes"?>
<svg xmlns="http://www.w3.org/2000/svg" xmlns:xlink="http://www.w3.org/1999/xlink" width="512px" height="512px" viewBox="0 0 384 384" version="1.1">
  <g id="surface1">
    <path style=" stroke:none;fill-rule:nonzero;fill:rgb(0%,0%,0%);fill-opacity:1;" d="M 201.304688 78.660156 L 115.539062 78.660156 L 115.539062 178.972656 L 191.832031 178.972656 L 191.832031 204.179688 L 115.539062 204.179688 L 115.539062 302.464844 L 199.78125 302.464844 C 244.949219 302.464844 286.902344 276.75 286.902344 191.492188 C 287.070312 106.234375 235.476562 78.660156 201.304688 78.660156 Z M 201.304688 78.660156 "/>
    <path style=" stroke:none;fill-rule:nonzero;fill:rgb(0%,0%,0%);fill-opacity:1;" d="M 0 0 L 0 383.660156 L 383.660156 383.660156 L 383.660156 0 Z M 200.121094 339.847656 L 76.96875 339.847656 L 76.96875 204.179688 L 48.378906 204.179688 L 48.378906 178.972656 L 76.96875 178.972656 L 76.96875 41.445312 L 202.148438 41.445312 C 252.222656 41.445312 327.332031 78.152344 327.332031 191.832031 C 327.332031 305.507812 266.261719 339.847656 200.121094 339.847656 Z M 200.121094 339.847656 "/>
  </g>
</svg>

<svg xmlns="http://www.w3.org/2000/svg" viewBox="0 0 384 384"><path d="M201.305 78.66h-85.766v100.313h76.293v25.207h-76.293v98.285h84.242c45.168 0 87.121-25.715 87.121-110.973.168-85.258-51.425-112.832-85.597-112.832zm0 0"/><path d="M0 0v383.66h383.66V0zm200.121 339.848H76.97V204.18H48.38v-25.207h28.59V41.445h125.18c50.074 0 125.183 36.707 125.183 150.387 0 113.676-61.07 148.016-127.21 148.016zm0 0"/></svg>
